icon-themes/sifr_svg/cmd/lc_showmultiplepages.svg

<svg viewBox="0 0 24 24" xmlns="http://www.w3.org/2000/svg"><path d="m0 1v10h11v-6l-4-4zm13 0v10h11v-6l-4-4zm-11 2h4v3h3v3h-7zm13 0h4v3h3v3h-7zm-15 10v10h11v-6l-4-4zm13 0v10h11v-6l-4-4zm-11 2h4v3h3v3h-7zm13 0h4v3h3v3h-7z" fill="#555753"/></svg>

<svg xmlns="http://www.w3.org/2000/svg" viewBox="0 0 24 24">
  <path
     style="fill:#555753"
     d="M 0 1 L 0 11 L 11 11 L 11 5 L 7 1 L 0 1 z M 13 1 L 13 11 L 24 11 L 24 5 L 20 1 L 13 1 z M 2 3 L 6 3 L 6 6 L 9 6 L 9 9 L 2 9 L 2 3 z M 15 3 L 19 3 L 19 6 L 22 6 L 22 9 L 15 9 L 15 3 z M 0 13 L 0 23 L 11 23 L 11 17 L 7 13 L 0 13 z M 13 13 L 13 23 L 24 23 L 24 17 L 20 13 L 13 13 z M 2 15 L 6 15 L 6 18 L 9 18 L 9 21 L 2 21 L 2 15 z M 15 15 L 19 15 L 19 18 L 22 18 L 22 21 L 15 21 L 15 15 z "
     />
</svg>
